source/bill.svg

<svg width="24" height="24" viewBox="0 0 24 24" fill="none" xmlns="http://www.w3.org/2000/svg">
<path fill-rule="evenodd" clip-rule="evenodd" d="M6 2.75C5.86192 2.75 5.75 2.86192 5.75 3V20.5426L8.06407 18.8897C8.32484 18.7034 8.67516 18.7034 8.93593 18.8897L12 21.0783L15.0641 18.8897C15.3248 18.7034 15.6752 18.7034 15.9359 18.8897L18.25 20.5426V3C18.25 2.86192 18.1381 2.75 18 2.75H6ZM4.25 3C4.25 2.03351 5.03348 1.25 6 1.25H18C18.9665 1.25 19.75 2.03351 19.75 3V22C19.75 22.2809 19.593 22.5383 19.3432 22.6669C19.0934 22.7954 18.7927 22.7736 18.5641 22.6103L15.5 20.4217L12.4359 22.6103C12.1752 22.7966 11.8248 22.7966 11.5641 22.6103L8.5 20.4217L5.43593 22.6103C5.20732 22.7736 4.90662 22.7954 4.65681 22.6669C4.40701 22.5383 4.25 22.2809 4.25 22V3Z" fill="#1C1B1F"/>
<path fill-rule="evenodd" clip-rule="evenodd" d="M8.25 11C8.25 10.5858 8.58579 10.25 9 10.25H15C15.4142 10.25 15.75 10.5858 15.75 11C15.75 11.4142 15.4142 11.75 15 11.75H9C8.58579 11.75 8.25 11.4142 8.25 11Z" fill="#1C1B1F"/>
<path fill-rule="evenodd" clip-rule="evenodd" d="M8.25 15C8.25 14.5858 8.58579 14.25 9 14.25H15C15.4142 14.25 15.75 14.5858 15.75 15C15.75 15.4142 15.4142 15.75 15 15.75H9C8.58579 15.75 8.25 15.4142 8.25 15Z" fill="#1C1B1F"/>
<path fill-rule="evenodd" clip-rule="evenodd" d="M8.25 7C8.25 6.58579 8.58579 6.25 9 6.25H15C15.4142 6.25 15.75 6.58579 15.75 7C15.75 7.41421 15.4142 7.75 15 7.75H9C8.58579 7.75 8.25 7.41421 8.25 7Z" fill="#1C1B1F"/>
</svg>

<svg xmlns="http://www.w3.org/2000/svg" width="24" height="24" fill="none" viewBox="0 0 24 24">
  <path fill="#1C1B1F" fill-rule="evenodd" d="M6 2.75a.25.25 0 0 0-.25.25v17.543l2.314-1.653a.75.75 0 0 1 .872 0L12 21.078l3.064-2.188a.75.75 0 0 1 .872 0l2.314 1.653V3a.25.25 0 0 0-.25-.25H6ZM4.25 3c0-.966.783-1.75 1.75-1.75h12c.966 0 1.75.784 1.75 1.75v19a.75.75 0 0 1-1.186.61L15.5 20.422l-3.064 2.188a.75.75 0 0 1-.872 0L8.5 20.422 5.436 22.61A.75.75 0 0 1 4.25 22V3Z" clip-rule="evenodd"/>
  <path fill="#1C1B1F" fill-rule="evenodd" d="M8.25 11a.75.75 0 0 1 .75-.75h6a.75.75 0 0 1 0 1.5H9a.75.75 0 0 1-.75-.75Zm0 4a.75.75 0 0 1 .75-.75h6a.75.75 0 0 1 0 1.5H9a.75.75 0 0 1-.75-.75Zm0-8A.75.75 0 0 1 9 6.25h6a.75.75 0 0 1 0 1.5H9A.75.75 0 0 1 8.25 7Z" clip-rule="evenodd"/>
</svg>
